!!!!SEGMENT: pl-wtm--1223-fp-3858--001-001_szymanowski-karol--fantaisie-op-14-i.krn
!!!cenid: 19xx:55
!!!COM: Szymanowski, Karol
!!!COM-rismID: pe30106403
!!!CDT: 1882-1937
!!!CNT: Polish
!!!OPR: Fantaisie op. 14
!!!OTL: I.
!!!OMV: 001
!!!PDT: 1911
!!!AGN: Secular; Fantasy
!!!YEC: Copyright 2022 Narodowy Instytut Fryderyka Chopina (https://polishscores.org)
!!!YEM: License CC-BY-4.0 (https://creativecommons.org/licenses/by/4.0)
!!!SMS-siglum: PL-Wtm
!!!SMS-shelfmark: 1223 fp 3858
!!!SMS-variant:
!!!SMS-altvar:
!!!SMS-shelfwork: 001-001 M
!!!NIFC-rismSourceID: 1001214572
!!!NIFC-rismChildID: 1001214572
!!!NIFC-islandoraID: pl-wtm:82261
!!!URL-pdf-islandora: https://repozytorium.nifc.pl/islandora/object/pl-wtm%3A82261/datastream/PDF/view
!!!URL-scan: https://polish.musicsources.pl/pl/lokalizacje/galeria/druki-muzyczne/18510/3 @EN{Scan on Polish Music Sources Website} @PL{Skany w portalu Dziedzictwo Muzyki Polskiej w otwartym dostępie}
!!!IIIF:
!!!ONB-nifc: UWAGA: I część Fantazji, str. 3-5.
!!!OMD: Grave.
!!!AIN: 1 piano
!!!key: none
**kern	**kern	**fing	**dynam
*part1	*part1	*part1	*part1
*staff2	*staff1	*staff1	*
*ICklav	*ICklav	*	*
*Ipiano	*Ipiano	*	*
*I"Piano.	*I"Piano.	*	*
*clefF4	*clefG2	*	*
*k[]	*k[]	*	*
*F#:	*F#:	*	*
*M4/4	*M4/4	*	*
*	*clefF4	*	*
4r	(8.GG#X^>/L	.	pp
!	!LO:TX:b:t=mister.	!	!
.	16AA#X/Jk)	.	.
=1	=1	=1	=1
*	*^	*	*
!	!LO:TX:a:t=ten.	!	!	!
2.FFF#X/	2.AA#X/ 2.C#X	(4GG#X\	.	.
.	.	8.FF#X\L	.	.
.	.	16EE#X\Jk	.	.
.	.	4DD#X\)	.	.
4r	4r	(8.CC#X\L	.	.
.	.	16DD#\Jk)	.	.
=2	=2	=2	=2	=2
!	!LO:TX:a:t=ten.	!	!	!
2FFF#X/	2.DD#X/ 2.FF#X	(4CC#X\	.	.
.	.	8.BBB\L	.	.
.	.	16AAA#X\Jk	.	.
!	!	!LO:TX:t=P:problem=linia przerywana pomiędzy systemami	!	!
4r	.	4GGG#X\)	.	.
4FFF#/	(8.FF#/L	4ryy	.	<
.	16GG#X/Jk)	.	.	.
=3	=3	=3	=3	=3
2EEE/	(4BB/	2GG#X\	.	.
.	8.GG#/L	.	.	.
.	16BB/Jk	.	.	.
4DDD#X/ 4DD#X	4C#X/	(4FF##X\	.	[
!	!LO:TX:b:t=rit.	!	!	!
4GGGn/ 4DDn	12BB/L	4GGn\)	.	>
.	12AAn/	.	.	.
.	12GG/J)	.	.	]]
*	*v	*v	*	*
!!LO:LB:g=original
=4	=4	=4	=4
*8ba	*	*	*
2.CCC#X/ 2.GGG#X 2.CC#X	(2FF#X/	.	.
.	4EE#X/)	.	.
*X8ba	*	*	*
4r	(8.GG#X^>/L 8.G#X	.	<
.	16AA#X/Jk) 16A#X	.	.
=5	=5	=5	=5
*^	*	*	*
!LO:TX:a:t=ten.	!	!LO:TX:a:t=ten.	!	!
.	8qFFF#X\	.	.	.
*	*	*^	*	*
2.AA#X/ 2.C#X	(4GG#\	2.A#X/ 2.c#X	(4G#X\	.	.
.	8.FF#X\L	.	8.F#X\L	.	[
.	16EE#X\Jk	.	16E#X\Jk	.	.
.	4DD#X\)	.	4D#X\)	.	.
4r	(8.CC#X\L	4r	(8.C#X\L	.	<
.	16DD#\Jk)	.	16D#\Jk)	.	.
*v	*v	*	*	*	*
*	*v	*v	*	*
=6	=6	=6	=6
*8ba	*	*	*
*^	*^	*	*
!LO:TX:a:t=ten.	!	!LO:TX:a:t=ten.	!	!	!
2.FFF#X\ 2.DD#X 2.FF#X	(>4CC#X/	2.D#X/ 2.F#X	(4C#X\	.	[
.	8.BBB/L	.	8.BB\L	.	.
.	16AAA#X/Jk	.	16AA#X\Jk	.	.
.	4GGG#X/)	.	4GG#X\)	.	.
!	!	!LO:TX:t=P:problem=n=1 cue	!	!	!
!	!	!LO:N:n=1:cue	!	!	!
4ryy	4FFF#/ 4FF#	(<8.FF#XZ/L 8.F#	4ryy	.	<
.	.	16GG#X/Jk) 16G#X	.	.	.
*v	*v	*	*	*	*
=7	=7	=7	=7	=7
(2EEEn/ 2EEn	4BB\ 4G#X 4B	4ryy	.	.
.	4G#/	8.GG#X\L 8.G#	.	[
.	.	16BB\Jk 16B	.	.
!LO:TX:a:t=rall.	!	!	!	!
4DDD#X/ 4DD#X	4F##X/	[4C#X\ [>4c#X	.	.
!	!LO:TX:b:t=rall.	!	!	!
!	!LO:N:acc=n#	!	!	!
4AAAn/) 4AAn	8F#X/L	12C#\L] 12c#]	.	>
.	.	12D#X\ 12d#X	.	.
.	8F##X/J	.	.	.
.	.	12C#\J 12c#	.	]]
*	*v	*v	*	*
*X8ba	*	*	*
!!LO:LB:g=original
=8	=8	=8	=8
4GGG#X/ 4GG#X	4BB#X\ 4G#X 4B#X	.	pp
!	!LO:TX:b:t=quasi corni	!	!
4r	2F#X~\ 2f#X	.	mp
2r	.	.	.
.	((4F#~\ 4f#	.	>
*	*clefG2	*	*
=9	=9	=9	=9
*	*^	*	*
2r	4F/)) 4f	4ryy	.	.
.	2F#X^^/ [2f#X	2ryy	.	] ppp
4r	.	.	.	.
!	!LO:TX:b:t=rit.	!	!	!
(<4D#X\ [>4A	(12c#X/L 12cc#X	8f#\L]	.	.
.	12d#X/ 12dd#X	.	.	<
.	.	[>8f##\J	.	.
.	12c#/J 12cc#	.	.	.
=10	=10	=10	=10	=10
4E-X\) 4A]	4cn/) 4ccn	4gnX\]	.	[
4r	2f#X^/ 2ff#X	2f#\	.	>
2r	.	.	.	.
!	!LO:TX:b:t=ral-lent.	!	!	!
.	[4f#\ [4ff#	4ryy	.	.
*	*v	*v	*	*
=11	=11	=11	=11
2r	4f#\] 4ff#]	.	.
.	4f#X\ 4ff#X	.	]
*	*8va	*	*
!LO:TX:a:t=ten.	!LO:TX:a:t=ten.	!	!
2DDD;/ [<2DD	2cccn;\ 2fff#X 2aaan 2ccccn	.	ppp
*	*X8va	*	*
!!LO:LB:g=original
=12	=12	=12	=12
!	!LO:TX:a:t=(Agitato)	!	!
16DD/LL]	(16E-X/KL	.	ppp
(<16C/	(>8e-X^/	.	.
16AA/	.	.	.
16GG/JJ	16D/Jk)) 16d	.	.
!	!	!	!LO:HP:t=crescendo e molto accelerando
16FF#X\LL)	(16B-X/KL	.	<
(16G\	(>8b-X^/	.	.
16E\	.	.	.
16D\JJ	16A/Jk)) 16a	.	.
16C#X\LL)	(16e-/KL	.	.
(16cnZ\	(>8ee-X^/	.	.
16A\	.	.	.
16G\JJ	16d/Jk)) 16dd	.	.
16F#X/LL)	(16b-\KL	.	.
*clefG2	*	*	*
16g/	(8bb-X^\	.	.
16e/	.	.	.
16d/JJ	16a\Jk)) 16aa	.	.
=13	=13	=13	=13
*^	*^	*	*
2ryy	16c#X/LL	(16ee-X\KL	2ryy	.	.
.	16ccnZ/	8eee-X\	.	.	.
.	16a/	.	.	.	.
.	16g/JJ	16dd\Jk) 16ddd	.	.	.
*	*	*8va	*8va	*	*
.	16f#X\LL	(16bb-X\KL	.	.	mf
.	16gg\	8bbb-X\	.	.	>
.	16ee\	.	.	.	.
.	16dd\JJ	16aa\Jk) 16aaa	.	.	.
16ryy	16cc#X\LL	(16eee-X/KL	[4eee-X\	.	.
[8.cccnZ/	16cccnZ\	[8.eeee-/J	.	.	.
.	16aa\	.	.	.	.
.	16aa-X\JJ	.	.	.	.
4ccc;>/]	16gg\KL	16eee-\KL] 16eeee-]	4ryy	.	]
!	!	!LO:TX:b:t=rall.	!	!	!
.	8.ff#X;>\J	8.ddd;\J) 8.dddd	.	.	.
*	*	*X8va	*X8va	*	*
*v	*v	*	*	*	*
*	*v	*v	*	*
*clefF4	*clefF4	*	*
!!LO:PB:g=original
=14	=14	=14	=14
!	!LO:TX:b:t=(agit.)	!	!
4DDD/ [4DD	4r	.	.
16DD/LL]	(16C-X\KL	.	ppp
!	!	!	!LO:HP:t=crescendo e molto accelerando
(16AA-X/	8c-X\	.	<
16FF/	.	.	.
16EE-X/JJ	16BB-X\Jk) 16B-X	.	.
16DD/LL)	(16F\KL	.	.
(<16D/	8f\	.	.
16BBn/	.	.	.
16AAn/JJ	16En\Jk) 16en	.	.
*	*clefG2	*	*
16AA-X\LL)	(16c-X/KL	.	.
(16A-X\	8cc-X/	.	.
16F\	.	.	.
16E-X\JJ	16B-X/Jk) 16b-X	.	.
=15	=15	=15	=15
*	*	*	*^
16D\LL)	(16f\KL	.	.	.
(16d\	8ff\	.	.	.
16Bn\	.	.	.	.
16An\JJ	16en\Jk) 16een	.	.	.
16A-X\LL)	(16cc-X\KL	.	.	.
*clefG2	*	*	*	*
(16a-X\	8ccc-X\	.	.	.
16f\	.	.	.	.
16e-X\JJ	16b-X\Jk) 16bb-X	.	.	.
16d/LL)	(16ff\KL	.	.	mf
!	!	!	!	!LO:HP:a:t=dim.
(<16dd/	8fff\	.	>	>
16bn/	.	.	.	.
16an/JJ	16een\Jk) 16eeen	.	.	.
*	*8va	*	*	*
16a-X\LL)	16ccc-X\KL	.	.	.
(16aa-X\	8cccc-X\	.	.	.
16ff\	.	.	.	.
16ee-X\JJ	16bb-X\Jk 16bbb-X	.	]	.
*	*	*	*v	*v
!!LO:LB:g=original
=16	=16	=16	=16
*^	*^	*	*
!	!	!LO:TX:b:t=rallent.	!	!	!
16ryy	16dd\LL)	16fffn/KL	[4fffn\	.	.
[8.ddd/	16ddd\	[8.ffff/J	.	.	.
.	16bb\	.	.	.	.
.	16bb-X\JJ	.	.	.	.
!	!	!	!	!	!LO:DY:rj
4ddd;/]	16aa\KL	16fff\KL] 16ffff]	4ryy	.	pp
.	8.gg#X;>\J	8.eee;\J 8.eeee	.	.	.
*clefF4	*	*	*	*	*
*v	*v	*	*	*	*
*	*v	*v	*	*
*	*X8va	*	*
*^	*^	*	*
8ryy	8DDD/ 8DD	8.r	8.ryy	.	.
8ryy	8ryy	.	.	.	.
.	.	((16G/ 16g	4ryy	.	p
!LO:TUP:a	!	!LO:TX:a:t=Subito energico e adirato.\n(Molto più mosso)	!	!	!
24r	4ryy	8..e/L)) 8..ee	.	.	.
24d\LL	.	.	.	.	.
24B-X\	.	.	.	.	.
24A\	.	.	.	.	.
24G\	.	.	.	.	.
.	.	.	16ryy	.	.
24F#X\JJ	.	.	.	.	.
.	.	((32e-X/Jkk 32ee-X	.	.	<
*v	*v	*	*	*	*
*	*v	*v	*	*
*clefG2	*	*	*
=17	=17	=17	=17
*	*	*	*^
*Xtuplet	*	*	*	*
!	!	!	!	!LO:HP:a:t=crescendo ed accel. molto
24r	8..b-X\L)) 8..bb-X	.	.	<
(24g/LL	.	.	.	.
24e/	.	.	.	.
24e-X/	.	.	.	.
24d/	.	.	.	.
24c#X/JJ)	.	.	.	.
.	((32a\Jkk 32aa	.	.	.
24r	8..ff#X\L)) 8..fff#X	.	.	.
(24een\LL	.	.	.	.
24ccn\	.	.	.	.
24b\	.	.	.	.
24a\	.	.	.	.
24g#X\JJ)	.	.	.	.
*	*8va	*	*	*
.	((32ffn\Jkk 32fffn	.	.	.
24r	8..ccc\L)) 8..cccc	.	.	.
(24aa\LL	.	.	.	.
24ff#X\	.	.	.	.
24ffn\	.	.	.	.
24ee\	.	.	.	.
24dd#X\JJ)	.	.	.	.
.	((32bbn\Jk 32bbb	.	[	.
!	!	!	!LO:DY:b	!
4r	4fff^\)) 4ffff	.	sff	.
*	*	*	*v	*v
*clefF4	*	*	*
!!LO:LB:g=original
=18	=18	=18	=18
4ryy	N(<(>16eeen/LL 16eeeen	.	ff
!	!LO:TX:b:t=furioso\n(presto)	!	!
.	16dddd/	.	.
.	16bbb-X/	.	.
.	16fff/JJ	.	.
*8va	*	*	*
16eee>\LL	4ryy	.	.
16ddd-X>\	.	.	.
16bb-X>\	.	.	.
16ff>\JJ	.	.	.
*X8va	*X8va	*	*
!	!LO:TX:a:t=loco	!	!
4ryy	16ee/LL	.	.
.	16dd-X/	.	.
.	16b-X/	.	.
.	16f/JJ	.	.
16e>\LL	4ryy	.	.
16d-X\	.	.	.
16B-X\	.	.	.
16F\JJ	.	.	.
*	*clefF4	*	*
=19	=19	=19	=19
4ryy	16E/LL	.	.
.	16D-X/	.	.
.	16BB-X/	.	.
.	16FF/JJ	.	.
*8ba	*	*	*
16EE/LL	4ryy	.	.
16DD-X/	.	.	.
16BBB-X/	.	.	.
16FFF/JJ	.	.	.
*tuplet	*	*	*
12r	12EEE/	.	.
12EEE-X^>/L	12EE-X^/L	.	.
12DDD^>/J	12DD^/J	.	.
!	!LO:TX:b:t=rallent.	!	!
4CCC#X^>/ 4CC#X	4C#X^\ 4c#X	.	.
*X8ba	*	*	*
*clefG2	*clefG2	*	*
=20	=20	=20	=20
4c#X^^/N) 4cc#X	4cc#X^^\) 4ccc#X	.	sff
2r;	2r;	.	.
*clefF4	*	*	*
(8.GG#X^/L	(8.G#X^>/L 8.g#X	.	sf
16AA#X/Jk)	16A#X/Jk) 16a#X	.	.
!!LO:LB:g=original
=21	=21	=21	=21
*^	*^	*	*
*	*Xtuplet	*	*	*	*
!	!	!LO:TX:t=P:problem=mixed beam	!	!	!
!	!	!LO:TX:a:t=Tempo I Maestoso.	!	!	!
!	!LO:TUP:a:r=4	!LO:TX:a:t=ten.	!LO:TUP:a:r=4	!	!LO:DY:rj
4GG#X^/ 4AA#X 4C#X 4G#X	8GG#\L	4c#X^/ 4g#X 4a#X 4cc#X	(8c#\L	.	ff
!	!LO:N:vis=16	!	!LO:N:vis=16	!	!
.	48FFF#X\LL	.	48FF#X</LL	.	.
!	!LO:N:vis=16	!	!LO:N:vis=16	!	!
.	48CC#X\	.	48C#X</	.	.
!	!LO:N:vis=16	!	!LO:N:vis=16	!	!
.	48FF#y\JJ	.	48F#X</JJ	.	.
!	!LO:N:vis=16	!	!LO:N:vis=16	!	!
.	48FF#\LL	.	48F#</LL	.	.
!	!LO:N:vis=16	!	!LO:N:vis=16	!	!
.	48C#\	.	48c#X</	.	.
!	!LO:N:vis=16	!	!LO:N:vis=16	!	!
.	48F\JJJ	.	48f#X</JJJ	.	.
!	!	!LO:TX:t=P:problem=mixed beam	!	!	!
4.f/	8.F^>\L 8.f	4ryy	32d</LLL	.	.
.	.	.	32cc#X\	.	.
.	.	.	32ff#X\	5	.
.	.	.	32ff#\JJ	1	.
.	.	.	32ccc#X\LL	.	.
.	.	.	32fff#X\	5	.
.	16E#X^>\Jk 16e#X	.	32fff#\	1	.
*	*	*	*8va	*	*
.	.	.	32ffff#X\JJJ)	.	.
*	*	*	*X8va	*	*
!	!	!	!LO:SIC:v:o=4ryy	!	!
.	4D#X^>\ 4d#X	4ryy	4r	.	.
8ryy	.	.	.	.	.
(<8.C#ZX^>/L	4ryy	(8.c#XZ^>/L	8.ryy	.	.
16D#^>/Jk)	.	16d#X^>/Jk)	16ryy	.	.
=22	=22	=22	=22	=22	=22
!	!	!LO:TX:t=P:problem=mixed beam	!	!	!
!	!	!LO:TX:a:t=ten.	!LO:TUP:a:r=4	!	!
4FF#X^/ 4C#X 4D#X	8FF#\L	4A#X^/ 4c#X 4d#X 4f#X	(>8A#^\L	.	.
!	!LO:N:vis=16	!LO:N:vis=16	!LO:N:vis=16	!	!
.	48FFF#X\LL	.	48FF</LL	.	.
!	!LO:N:vis=16	!LO:N:vis=16	!LO:N:vis=16	!	!
.	48BBB\	.	48BB</	.	.
!	!LO:N:vis=16	!LO:N:vis=16	!LO:N:vis=16	!	!
.	48FF#\JJ	.	48F#X</JJ	.	.
!	!LO:N:vis=16	!LO:N:vis=16	!LO:N:vis=16	!	!
.	48FF#\LL	.	48F#</LL	.	.
!	!LO:N:vis=16	!LO:N:vis=16	!LO:N:vis=16	!	!
.	48BB\	.	48B</	.	.
!	!LO:N:vis=16	!LO:N:vis=16	!LO:N:vis=16	!	!
.	48F\JJJ	.	48f#X</JJJ	.	.
4.ryy	8.BB^\L 8.B	4ryy	32f#\LLL	.	.
.	.	.	32b\	.	.
.	.	.	32ff#X\	.	.
.	.	.	32ff#\JJ	.	.
.	.	.	32bb\LL	.	.
.	.	.	32fff#X\	.	.
.	16AA#X^\Jk 16A#X	.	32fff#\	.	.
*	*	*	*8va	*	*
.	.	.	32ffff#\JJJ)	.	.
*	*	*	*X8va	*	*
.	4GG#X/ 4G#X	4ryy	4r	.	.
8ryy	.	.	.	.	.
4FFF#^/ 4FF#	4ryy	4ryy	8.F#^>/L 8.f#	.	.
.	.	.	16G#X^>/Jk 16g#X	.	.
*v	*v	*	*	*	*
*	*v	*v	*	*
=23	=23	=23	=23
!	!LO:TX:b:t=maestoso	!	!
(8qEEE/ 8qEE	.	.	.
2BB^\) 2E 2G#X	(4B^>/ 4e 4b	.	.
.	8.G#X/L 8.g#X	.	.
.	16B/Jk) 16b	.	.
!	!LO:TX:b:t=agitato	!	!
4EEE-X^>/ 4EE-X	8.c#X/L 8.f##X 8.cc#X	.	<
.	((16cn/Jk 16ccn	.	.
4DDDn^>/ 4DDn	8.a\L)) 8.cc 8.ff#X 8.aa	.	.
.	((16a-X\Jk 16aa-X	.	[[
(>8qAAA-X/ 8qAA-X	.	.	.
*clefG2	*	*	*
!!LO:LB:g=original
=24	=24	=24	=24
4e-X/) 4a-X 4ccn	8ee-X\)) 8aa-X 8eee-X	.	sf
.	8r	.	.
4r	8.cn/L 8.ccn	.	.
.	16e-X/Jk 16ee-XZ	.	.
*clefF4	*	*	*
4GGG^>/ 4GG	8.fn\L 8.bn 8.ffn	.	<
.	((16en\Jk 16een	.	.
!	!LO:TX:b:t=accel.	!	!
4FFF#X^>/ 4FF#X	8.cc#X\L)) 8.ee 8.aa#X 8.ccc#X	.	.
.	16ccn\Jk 16cccn	.	[[
=25	=25	=25	=25
*	*8va	*	*
*^	*	*	*
4G:/ 4c: 4e: 4g:	8CC:\ 8C:	8ggn\ 8cccn 8eeen 8gggn	.	ff
.	8r	8r	.	.
8E^\L 8e	2.ryy	4r	.	.
!	!	!	!	!LO:HP:b=2
16.g^\L	.	.	.	<
((32C\JJk 32c	.	.	.	.
!	!	!LO:TX:b:t=accel.	!	!
.	.	(>8qddd/ 8qbbb 8qdddd	.	.
8.A\L)) 8.a	.	16eee-X\LL 16cccc 16eeee-X	.	.
.	.	16aaa\	.	.
.	.	16fff#X\	.	.
((16A-X\Jk 16a-X	.	16eee-\JJ	.	.
8e-X\)) 8ee-X	.	16ccc/LL 16eee-	.	[
.	.	16aa/	.	.
8r	.	16ff#X/	.	.
.	.	16ee-X/JJ)	.	.
*v	*v	*	*	*
=26	=26	=26	=26
!	!LO:TX:b:t=m.d.	!	!
4BBB\ 4BB	4bn</ 4een< 4gg#< 4bbn<	.	.
8G#X^\L 8g#X	4r	.	.
16.B^\L 16.b	.	.	.
((32D\JJk 32d	.	.	.
*clefG2	*	*	*
.	(>8qeeenX/ 8qcccc#X 8qeeeenX	.	<
8.B/L)) 8.b	16fff\LL 16dddd 16ffff	.	.
.	16bbb\	.	.
.	16aaa-X\	.	.
(<(<16B-X/Jk 16b-X	16fff\JJ	.	.
!	!LO:TX:b:t=accel.	!	!
8f/)) 8ff	16ddd\LL 16fff	.	[
.	16bbn\	.	.
8r	16aa-X\	.	.
.	16ff\JJ)	.	.
*	*X8va	*	*
!!LO:PB:g=original
=27	=27	=27	=27
*clefF4	*	*	*
*	*8va	*	*
8AAA^/ 8AA	8aaa\ 8aaaa	.	???
8r	8r	.	.
!	!LO:TUP:a	!	!
(8.F#X\L 8.f#X	(24aa\LL 24fff#X 24aaa	.	.
.	24bbbn\	.	.
.	24aa\ 24fff# 24aaa	.	.
.	24bbb\	.	.
!	!LO:TX:b:t=accelerando	!	!
.	24aa\JJ) 24fff# 24aaa	.	.
16A\Jk) 16a	.	.	.
.	24r	.	.
8AAA/ 8AA	8aaa\ 8aaaa	.	.
8r	8r	.	.
*	*Xtuplet	*	*
(8.Fn\L 8.fn	(24aa\LL 24fffn 24aaa	.	.
.	24bbb\	.	.
.	24aa\ 24fff 24aaa	.	.
.	24bbb\	.	.
.	24aa\JJ) 24fff 24aaa	.	.
16A\Jk) 16a	.	.	.
.	24r	.	.
=28	=28	=28	=28
*	*	*	*^
!	!	!	!LO:DY:b	!
8AAA/ 8AA	8aaa\L 8aaaa	.	sff	.
*	*X8va	*	*	*
!	!LO:TX:a:t=loco	!	!	!
8r	16r	.	.	.
!	!	!	!LO:DY:b:t=sub.p	!
.	(<16G\Jk	.	p <	.
*tuplet	*	*	*	*
!	!LO:TX:a:t=più mosso. (Allegro energico.)	!	!	!
20r	[<4e^>/	.	.	.
!	!	!	!	!LO:HP:b=2
(20D#X\LL	.	.	.	<
20E\	.	.	.	.
20F\	.	.	.	.
20F#X\JJ	.	.	.	.
[4G^\	8.e/L])	.	.	[
.	16e-X/Jk	.	.	.
!	!	!	!LO:HP:t=crescendo	!LO:HP:b=2
16G\LL]	[4B-X^>/ [4b-X	.	[ <	>
16G-X\	.	.	.	.
16Fn\	.	.	.	.
16E-X\JJ)	.	.	.	]
=29	=29	=29	=29	=29
8AAA^>/ 8AA	8.B-/L] 8.b-]	.	.	.
8r	.	.	.	.
!	!	!	!LO:HP:b:t=crescen-do molto:ext=s:ext=cd	!
.	((16A/Jk 16a	.	<	.
!LO:TUP:a	!	!	!	!
20r	[4f#X^\)) [4ff#X	.	.	.
!	!	!	!	!LO:HP:b=2
(20E#X\LL	.	.	.	<
20F#X\	.	.	.	.
20G\	.	.	.	.
20G#X\JJ	.	.	.	.
[4A^\	8.f#\L] 8.ff#]	.	.	[
!	!	!	!	!LO:HP:b=2
.	(16fn\Jk 16cc 16ffn	.	.	>
16A\LL]	[4cc^\ [4ccc	.	.	.
16A-X\	.	.	[	.
16Gn\	.	.	<	.
16Fn\JJ)	.	.	.	]
!!LO:LB:g=original
=30	=30	=30	=30	=30
*	*^	*	*	*
((16AAA-X/LL	8cc\]) 8ccc]	8ryy	.	.	<
16AA-X/)	.	.	.	.	.
!	!	!	!	!LO:DY:b	!
(16EE-X/	(4cc-X^\ 4ccc-X	[>2ee-X/	.	[ ff	.
16E-X/JJ)	.	.	.	.	.
(16AA-\LL	.	.	.	.	.
16A-X\)	.	.	.	.	.
(16BB-X\	4b-X\ 4bb-X	.	.	>	.
16B-X\JJ)	.	.	.	.	.
(16C-X\LL	.	.	.	.	.
16c-X\)	.	.	.	.	.
(16E-\	8a-X\L 8aa-X	8ee-/]	.	.	.
16e-X\JJ))	.	.	.	.	[
!	!	!	!	!	!LO:DY:b=2
8A-\ 8c- 8a-X	8.g\ 8.gg	4cc-X/	.	.	sf
8r	.	.	.	.	.
.	16g-X\Jk) 16gg-X	.	.	]	.
*	*	*	*	*v	*v
=31	=31	=31	=31	=31
!	!LO:TX:t=P:problem=mixed beam	!	!	!LO:DY:rj
(<16BBBB-X\LL	8g-X^>\L 8a-X 8ddn 8gg-X	2ryy	.	sf
16BBB-X\	.	.	.	.
!	!	!	!	!LO:HP:a
16FF\	(16BB-X</L	.	.	<
16AA-X\JJ	16D</JJ	.	.	.
!	!LO:TX:t=P:problem=mixed beam	!	!	!
16BB\LL	16G-X</LL	.	.	.
16BB\	16A-X</	.	.	.
16F\	16B-X</	.	.	.
16A\JJ	16d\JJ	.	.	.
16B\LL	16g-X\LL	4ryy	.	.
16B\	16a-X\	.	.	.
16f\	16b-X\	.	.	[
16a-X\JJ	16dd\JJ	.	.	.
!	!	!	!	!LO:DY:a:rj
16b-X\LL	16f\LL	4f^>/ 4ff	.	sf
!	!	!	!	!LO:HP:a
16a-\	16dd\	.	.	>
!	!LO:TX:b:t=rit.	!	!	!
16f\	16b-\	.	.	.
16B\JJ)	16f\JJ)	.	.	]]
*	*v	*v	*	*
!!LO:LB:g=original
=32	=32	=32	=32
*^	*	*	*
*	*	*	*	*^
8AAAn/ 8AAn	4.ryy	8r	.	.	.
8r	.	16r	.	.	.
!	!	!	!	!LO:DY:b	!
.	.	(16Gn/ 16gn	.	mp	.
8r	.	[4en^>/ [4een	.	.	.
8Gn^/	24D#X\LL	.	.	.	<
.	24En\	.	.	.	.
.	24F#X\JJ	.	.	.	.
4B-X/	([4G\	8.e/L]) 8.ee]	.	.	[
!	!	!	!	!LO:HP:t=cre-scen-do molto:ext=s:ext=cd	!
.	.	(16e-X/Jk 16ee-X	.	<	.
4r	16G\LL]	((4b-X^\ 4bb-X	.	.	>
.	16G-X\	.	.	.	.
.	16Fn\	.	.	.	.
.	16E-X\JJ)	.	.	.	]
*v	*v	*	*	*	*
=33	=33	=33	=33	=33
*	*8va	*	*	*
*^	*	*	*	*
8AAA^>/ 8AA	4.ryy	8.b-X/L))) 8.bb-X	.	.	.
8r	.	.	.	.	.
.	.	(16an/Jk 16aan	.	.	.
8r	.	[4ff#X\ [4aa [4fff#X	.	[	.
8A^/	24E#X\LL	.	.	.	<
.	24F#X\	.	.	.	.
.	24G#X\JJ	.	.	.	.
4c/	([4A\	8.ff#\L]) 8.aa] 8.fff#]	.	<	[
.	.	(16ffn\Jk 16cccn 16fffn	.	.	.
4r	16A\LL]	[4ccc\ [4fff [4ccccn	.	.	>
.	16A-X\	.	.	.	.
.	16G#\	.	.	.	.
.	16Fn\JJ)	.	.	.	]
*v	*v	*	*	*	*
=34	=34	=34	=34	=34
*	*^	*	*	*
((16AAA-X/LL	8ccc\]) 8fff] 8cccc]	8ryy	.	[	<
16AA-X/)	.	.	.	.	.
!	!	!	!	!LO:DY:b	!
(16EE-X/	[2eee-/	(>4ccc-X^>\ 4cccc-X	.	ff	.
16E-X/JJ)	.	.	.	>	.
(16AA-\LL	.	.	.	.	.
16A-X\)	.	.	.	.	.
(16BB-X\	.	4bb-X\ 4bbb-X	.	.	.
16B-X\JJ)	.	.	.	.	.
(16C-X\LL	.	.	.	.	.
16c-X\)	.	.	.	.	.
(16E-\	8eee-/]	8aa-X\L 8aaa-X	.	.	.
16e-X\JJ))	.	.	.	.	.
8A-\ 8c- 8a-X	4ccc-X/	8.gg\ 8.ggg	.	.	[
8r	.	.	.	.	.
.	.	16gg-X\Jk) 16ggg-X	.	]	.
*	*	*	*	*v	*v
*	*v	*v	*	*
*	*X8va	*	*
!!LO:LB:g=original
=35	=35	=35	=35
*	*8va	*	*
!	!LO:TX:a:t=con passione	!	!
8BBB-X^\L 8BB-X	16gg-X\LL 16ggg-X	.	ff
.	16bb-X\	.	>
((8G-X^<\J 8g-X	16ddd\	.	.
.	16aan\JJ	.	.
*	*X8va	*	*
!	!LO:TX:a:t=loco	!	!
8F\L)) 8f	16aa-X\LL	.	.
.	16b-X\	.	.
((8BB-^\J 8B-X	16dd\	.	.
.	16an\JJ	.	.
8C-X/L)) 8c-X	16a-X/LL	.	.
.	16d/	.	.
((8CC-X^/J 8C-	16f/	.	.
.	16d-X/JJ	.	.
8CCn/L 8Cn	16c/LL	.	.
.	16G/	.	.
8CC#X/J)) 8C#X	16B-X/	.	.
.	16En/JJ	.	]
=36	=36	=36	=36
(16An\LL	8r	.	.
16En\	.	.	.
16Gn\	(16An^>/LL 16an	.	mf
16C#X\JJ	16Bn/JJ 16bn	.	.
16E/LL	8c#X\L) 8cc#X	.	<
16AA/	.	.	.
16C#/	(16a^\L 16aa	.	.
16GGn/JJ	16bn\JJ 16bbn	.	.
16AA/LL	8cc#\L) 8ccc#X	.	.
16EEn/	.	.	.
*	*8va	*	*
16GG/	(16aa^\L 16aaa	.	.
16CC#X/JJ	16bb\JJ 16bbb	.	.
16EE/LL	8ccc#\) 8cccc#	.	.
16BBB-X/	.	.	.
*	*X8va	*	*
16CC#/	8r	.	[[
[16AAA/JJ)	.	.	.
!!LO:LB:g=original
=37	=37	=37	=37
8AAA^\L] 8AA	(16ff^\LL 16fff	.	ff
.	16aa\	.	.
((8F^<\J 8f	16ccc#X\	.	>
.	16gg#X\JJ	.	.
8E\L)) 8e	16gg#\LL	.	.
.	16a\	.	.
((8AA^\J 8A	16cc#X\	.	.
.	16g#X\JJ	.	.
8BB-X/L)) 8B-X	16gn/LL	.	.
.	16c#X/	.	.
((8BBB-X^/J 8BB-	16e/	.	.
.	16cn/JJ	.	.
8BBBn/L 8BBn	16B/LL	.	.
.	16F#X/	.	.
8CC/J)) 8C	16A/	.	]
.	16D#X/JJ)	.	.
=38	=38	=38	=38
(<16A-X\LL	8r	.	mf
16E-X\	.	.	.
16G-X\	(16A-X^>/LL 16a-X	.	<
16C\JJ	16B-X/JJ 16b-X	.	.
16E-/LL	8c\L) 8cc	.	.
16AA-X/	.	.	.
16C/	(16a-^\L 16aa-X	.	.
16GG-X/JJ	16b-\JJ 16bb-X	.	.
16AA-/LL	8cc\L) 8ccc	.	.
16EE-/	.	.	.
*	*8va	*	*
16GG-/	(16aa-^>\L 16aaa-X	.	.
16CC/JJ	16bb-\JJ 16bbb-X	.	[
16EE-/LL	8ccc\) 8cccc	.	ff
16BBB--/	.	.	.
*	*X8va	*	*
16CC/	8r	.	.
16AAA-X/JJ)	.	.	.
!!LO:PB:g=original
=39	=39	=39	=39
*M5/4	*M5/4	*	*
!	!	!	!LO:DY:t=sub.p
8GGG-X^/L	(>4d-X^>/ 4f 4b-X 4dd-X	.	p
(16D-X/L	.	.	.
16DD-X/JJ)	.	.	.
*	*tuplet	*	*
!	!	!	!LO:HP:t=cre-scen-do e ac-ce-le-rando:ext=s:ext=cd
8GGGn^/L	12c/L 12cc	.	<
.	12An/ 12an	.	.
(16D-/L	.	.	.
.	12B-X/J) 12b-	.	.
16DD-/JJ)	.	.	.
8GGG-X^/L	(>4d-^>/ 4f 4b- 4dd-	.	.
(16D-/L	.	.	.
16DD-/JJ)	.	.	.
*	*Xtuplet	*	*
8GGGn^/L	12c/L 12cc	.	.
.	12A/ 12a	.	.
(16D-/L	.	.	.
.	12B-/J) 12b-	.	.
16DD-/JJ)	.	.	.
8r	(>12e-X/L 12ee-X	.	.
.	12c/ 12cc	.	.
(16D-/LL	.	.	.
.	12d-X/J) 12dd-X	.	.
16DD-/JJ)	.	.	.
=40	=40	=40	=40
8AAA-X^/L	(>4f^>/ 4a-X 4dd-X 4ff	.	.
(16D-X/L	.	.	.
16DD-X/JJ)	.	.	.
8AAAn^/L	12e-X/L 12ee-X	.	.
.	12c/ 12cc	.	.
(16D-/L	.	.	.
.	12d-X/J) 12dd-	.	.
16DD-/JJ)	.	.	.
8AAA-X^/L	(>4f^>/ 4a- 4dd- 4ff	.	.
(16D-/L	.	.	.
16DD-/JJ)	.	.	.
8AAAn/L	12e-/L 12ee-	.	.
.	12c/ 12cc	.	.
(16D-/L	.	.	.
.	12d-/J) 12dd-	.	.
16DD-/JJ)	.	.	.
8r	(>12g-X/L 12gg-X	.	.
.	12e-/ 12ee-	.	[
(16D-/LL	.	.	.
.	12f/J) 12ff	.	.
16DD-/JJ)	.	.	.
!!LO:LB:g=original
=41	=41	=41	=41
*	*	*	*^
*M4/4	*M4/4	*	*	*
8BBB-X^/L	(4a-X^\ 4dd-X 4aa-X	.	.	.
!	!	!	!LO:HP:a:t=cre-scen-do e ac-ce-le-rando:ext=s:ext=cd	!
(16F/L	.	.	<	.
16FF/JJ)	.	.	.	.
8CC^/L	12g\L 12gg	.	.	.
.	12en\ 12een	.	.	.
(16F/L	.	.	.	.
.	12f\J) 12ff	.	.	.
16FF/JJ)	.	.	.	.
8BBB-^/L	(4a-^\ 4dd- 4aa-	.	.	.
(16F/L	.	.	.	.
16FF/JJ)	.	.	.	.
8CC^/L	12g\L 12gg	.	.	.
.	12e\ 12ee	.	.	.
(16F/L	.	.	.	.
.	12f\J) 12ff	.	.	.
16FF/JJ)	.	.	.	.
=42	=42	=42	=42	=42
!	!	!	!	!LO:HP:a
8DD-X^/L 8D-X	(12b-X^\L 12bb-X	.	.	<
.	12g\ 12gg	.	.	.
(16F/L	.	.	.	.
.	12a-X\J) 12aa-X	.	.	.
16FF/JJ)	.	.	.	.
8CC^/L 8C	(12cc^\L 12ccc	.	.	.
.	12a-\ 12aa-	.	.	.
(16F/L	.	.	.	.
.	12b-\J) 12bb-	.	.	.
16FF/JJ)	.	.	.	.
8BBB-X^/L 8BB-X	(12dd-X^\L 12ddd-X	.	.	.
.	12b-\ 12bb-	.	.	.
(16F/L	.	.	.	.
.	12cc\J) 12ccc	.	.	.
16FF/JJ)	.	.	.	.
8CC^/L 8C	(12ee-X^\L 12eee-X	.	.	.
.	12cc\ 12ccc	.	.	.
(16F/L	.	.	.	.
.	12dd-\J) 12ddd-	.	.	.
16FF/JJ)	.	.	.	.
=43	=43	=43	=43	=43
*	*8va	*	*	*
8DD-X^/L 8D-X	(12ff^\L 12fff	.	.	.
.	12dd-X\ 12ddd-X	.	.	.
(16F/L	.	.	.	.
.	12ee-X\J) 12eee-X	.	.	.
16FF/JJ)	.	.	.	.
8CC^/L 8C	(12gg^\L 12ggg	.	.	.
.	12ee-\ 12eee-	.	.	.
(16F/L	.	.	.	.
.	12ff\J) 12fff	.	.	.
16FF/JJ)	.	.	.	.
8BBB-X^/L 8BB-X	(12aa-X^\L 12aaa-X	.	.	.
.	12ff\ 12fff	.	.	.
(16F/L	.	.	.	.
.	12gg\J) 12ggg	.	.	.
16FF/JJ)	.	.	.	.
8AAAn^/L 8AAn	(12aan^\L 12aaan	.	[	.
.	12ff\ 12fff	.	.	.
(16F/L	.	.	.	.
.	12gg\J) 12ggg	.	.	.
16FF/JJ)	.	.	.	[
*	*	*	*v	*v
!!LO:LB:g=original
=44	=44	=44	=44
8qAAA-X/ 8qAA-X	8qbb-X/ 8qbbb-X	.	.
*clefG2	*	*	*
*tremolo	*tremolo	*	*
32gg-X\LLL 32ccc-X	32ddd\LLL 32cccc-X	.	.
32aa-X\ 32bb-X	32aaa-\ 32bbb-X	.	.
32gg-\ 32ccc-	32ddd\ 32cccc-X	.	.
32aa-\ 32bb-X	32aaa-\ 32bbb-X	.	.
32gg-\ 32ccc-	32ddd\ 32cccc-X	.	.
32aa-\ 32bb-X	32aaa-\ 32bbb-X	.	.
32gg-\ 32ccc-	32ddd\ 32cccc-X	.	.
32aa-\ 32bb-X	32aaa-\ 32bbb-X	.	.
32gg-\ 32ccc-	32ddd\ 32cccc-X	.	.
32aa-\ 32bb-X	32aaa-\ 32bbb-X	.	.
32gg-\ 32ccc-	32ddd\ 32cccc-X	.	.
32aa-\ 32bb-X	32aaa-\ 32bbb-X	.	sfff
32gg-\ 32ccc-	32ddd\ 32cccc-X	.	.
32aa-\ 32bb-X	32aaa-\ 32bbb-X	.	.
32gg-\ 32ccc-	32ddd\ 32cccc-X	.	.
32aa-\ 32bb-X	32aaa-\ 32bbb-X	.	.
32gg-\ 32ccc-	32ddd\ 32cccc-X	.	.
32aa-\ 32bb-X	32aaa-\ 32bbb-X	.	.
32gg-\ 32ccc-	32ddd\ 32cccc-X	.	.
32aa-\ 32bb-X	32aaa-\ 32bbb-X	.	.
32gg-\ 32ccc-	32ddd\ 32cccc-X	.	.
32aa-\ 32bb-X	32aaa-\ 32bbb-X	.	.
32gg-\ 32ccc-	32ddd\ 32cccc-X	.	.
32aa-\JJJ 32bb-X	32aaa-\JJJ 32bbb-X	.	.
*Xtremolo	*Xtremolo	*	*
*clefF4	*	*	*
*	*X8va	*	*
8.GG#X^/L 8.G#X	4r	.	.
16AA#X^/Jk 16A#X	.	.	.
=45	=45	=45	=45
*^	*^	*	*
!LO:TX:b:t=(maestoso, quasi tromboni)	!	!	!	!	!
!LO:TX:b:t=(ten.)	!	!LO:TX:a:t=(furioso)	!	!	!
4GG#X^/ 4G#X	2.AA#\ 2.C#	(24c#X^</LL	4c#\	.	.
.	.	24E#X/	.	.	ff <
.	.	24Bn/	.	.	.
.	.	24d/	.	.	.
.	.	24e#X/	.	.	.
.	.	24b/JJ	.	.	.
8.FF#X^</L 8.F#X	.	24dd\LL	4ryy	.	.
.	.	24ee#X\	.	.	.
.	.	24bb\	.	.	.
.	.	24ddd\	.	.	.
.	.	24eee#X\	.	.	.
16EE#X^</Jk 16E#X	.	.	.	.	.
.	.	24bbb\JJ	.	.	.
4DD#X^</ 4D#X	.	24dddd\LL	4ryy	.	.
.	.	24bbb\	.	.	[
.	.	24eee#\	.	.	>
.	.	24ddd\	.	.	.
.	.	24bb\	.	.	.
.	.	24ff\JJ	.	.	.
8.CC#X^/L 8.C#X	4ryy	24dd/LL	4ryy	.	.
.	.	24b/	.	.	.
.	.	24e#/	.	.	.
.	.	24d/	.	.	.
.	.	24B/	.	.	.
16DD#^/Jk 16D#	.	.	.	.	.
.	.	24E#/JJ)	.	.	]
!!LO:LB:g=original
=46	=46	=46	=46	=46	=46
!LO:TX:b:t=(ten.)	!	!	!	!	!
4CC#X^/ 4C#X	2.DD#X\ 2.FF#X	(24F#X^</LL	4F#\	.	.
.	.	24Gn/	.	.	<
.	.	24A#X/	.	.	.
.	.	24e/	.	.	.
.	.	24g/	.	.	.
.	.	24a#X/JJ	.	.	.
8.BBB^/L 8.BB	.	24ee\LL	4ryy	.	.
.	.	24gg\	.	.	.
.	.	24aa#X\	.	.	.
*	*	*8va	*	*	*
.	.	24eee\	.	.	.
.	.	24ggg\	.	.	.
16AAA#X^/Jk 16AA#X	.	.	.	.	.
.	.	24aaa#\JJ	.	.	.
4GGG#X^/ 4GG#X	.	24eeee\LL	4ryy	.	.
.	.	24aaa#\	.	.	[
.	.	24ggg\	.	.	>
.	.	24eee\	.	.	.
.	.	24aa#\	.	.	.
.	.	24gg\JJ	.	.	.
*v	*v	*	*	*	*
*	*v	*v	*	*
*	*X8va	*	*
*^	*^	*	*
8.FFF#X^>/L 8.FF#	4ryy	24ee/LL	4ryy	.	.
.	.	24a#/	.	.	.
.	.	24g/	.	.	.
.	.	24e/	.	.	.
.	.	24c#X/	.	.	.
16GGG#^>/Jk 16GG#	.	.	.	.	.
.	.	24A#/JJ)	.	.	]
*v	*v	*	*	*	*
*	*v	*v	*	*
=47	=47	=47	=47
!	!LO:TX:a:t=(ancora poco più mosso)	!	!LO:HP:b=2
(12EEE/L 12EE	8b^\ 8ee 8gg#X 8bb	.	sf <
12GGG#X/ 12GG#X	.	.	.
.	8r	.	.
12BBB/J) 12BB	.	.	.
4EE^/ 4E	8.G#X^>/L 8.g#X	.	[ <
.	16B/Jk 16b	.	.
4EE-X^/ 4E-X	8.d-X^>/L 8.gn 8.b-X 8.dd-X	.	.
.	16cn/Jk 16ccn	.	.
4DD^/ 4D	8.an^\L 8.ccn 8.ff#X 8.aan	.	.
.	16g#X\Jk 16gg#X	.	[[
!!LO:LB:g=original
=48	=48	=48	=48
*Xtuplet	*	*	*
!	!	!	!LO:HP:b=2
(12AAA-X/L 12AA-X	8ee-X^\ 8aa-X 8cccnX 8eee-X	.	sf <
12CCn/ 12Cn	.	.	.
.	8r	.	.
12EE-X/J) 12E-X	.	.	.
4AA-X^/ 4A-X	8.c^>/L 8.cc	.	[ <
.	16e-X/Jk 16ee-X	.	.
4GG^/ 4G	8.f^>/L 8.bn 8.dd 8.ff	.	.
.	16en/Jk 16een	.	.
4FF#X^/ 4F#X	8.cc#X^\L 8.ee 8.aa#X 8.ccc#X	.	.
.	16b#X\Jk 16bb#X	.	[[
=49	=49	=49	=49
!	!	!	!LO:HP:b=2
(12CCn/L 12Cn	8ggn^\ 8cccn 8eeen 8gggn	.	<
12EEn/ 12En	.	.	.
.	8r	.	.
12GG/J) 12G	.	.	.
4C^\ 4c	8.en^\L 8.een	.	[ <
.	16g\Jk 16gg	.	.
4BBn^\ 4D#X 4F#X 4Bn	8.a^\L 8.dd#X 8.ff#X 8.aa	.	.
.	16g#X\Jk 16gg#X	.	.
4BB-X^\ 4Dn 4Fn 4B-X	8.ffn^\L 8.aa-X 8.dddn 8.fffn	.	.
.	16een\Jk 16eeen	.	[[
=50	=50	=50	=50
!	!	!	!LO:HP:b=2
(12EEEn/L 12EEn	8bbn\ 8eeen 8ggg#X 8bbbn	.	sf <
12GGG#X/ 12GG#X	.	.	.
.	8r	.	.
12BBB/J) 12BB	.	.	.
4EE^/ 4E	8.G#X^>/L 8.g#X	.	[ p
.	16B/Jk 16b	.	.
!	!	!	!LO:HP:t=cre-scen-do e strin-gen0do:ext=s:ext=cd
4EE-X^/ 4E-X	8.d-X^>/L 8.gn 8.b-X 8.dd-X	.	<
.	16cn/Jk 16ccn	.	.
4DD^/ 4D	8.f#X^>/L 8.an 8.ccn 8.ff#X	.	.
.	16fn/Jk 16ffn	.	.
!!LO:PB:g=original
=51	=51	=51	=51
4CC#X^>/ 4C#X	8.bn^\L 8.ee#X 8.gg#X 8.bbn	.	.
.	16a#X\Jk 16aa#X	.	.
*	*8va	*	*
4CCn^>/ 4Cn	8.een^>/L 8.ggn 8.bb-X 8.eee	.	.
.	16dd#X/Jk 16ddd#X	.	.
4BBBn^>/ 4BBn	8.aa#^\L 8.ddd# 8.fff#X 8.aaa#X	.	.
.	16gg#X\Jk 16ggg#X	.	.
4BBB-X^>/ 4BB-X	8.bb-X^\L 8.eee-X 8.ggg-X 8.bbb-X	.	.
.	16aan\Jk 16aaan	.	.
=52	=52	=52	=52
*M5/4	*M5/4	*	*
4BBB--^>/ 4BB--	8.ccc-X^\L 8.eee-X 8.ggg-X 8.cccc-X	.	.
.	16bb-X\Jk 16bbb-X	.	.
4AAA-X^>/ 4AA-X	8.cccn^\L 8.eee- 8.ggg- 8.ccccn	.	.
.	16bbn\Jk 16bbbn	.	.
4GGGn^>/ 4GGn	8.ddd-X^\L 8.fff 8.bbb-X 8.dddd-X	.	.
.	16cccnX\Jk 16ccccnX	.	.
4FFF#X^>/ 4FF#X	8.dddn^\L 8.aaan 8.ccccn 8.ddddn	.	[
.	16ccc#X\Jk 16cccc#X	.	.
4FFFn^>/ 4FFn	8.eee-X^\L 8.aaan 8.ccccn 8.eeee-X	.	.
.	16ddd\Jk 16dddd	.	.
=53	=53	=53	=53
*M4/4	*M4/4	*	*
!	!LO:TX:a:t=Trionfando.	!	!
(8qEEE/ 8qEE	.	.	.
!	!	!	!LO:DY:rj
([4En\) [4AnX [4c#X [4en	(8.eeen^\L 8.aaan 8.cccc#X 8.eeeen	.	ff
.	16ddd#X\Jk) 16dddd#X	.	.
*tuplet	*	*	*
12E\L] 12A] 12c#] 12e]	(8.eee^\L 8.aaa 8.cccc# 8.eeee	.	.
12D#X\ 12d#X	.	.	.
12E\J) 12e	.	.	.
.	16ddd#\Jk) 16dddd#	.	.
*clefG2	*	*	*
!	!	!	!LO:DY:b=2
([2e^>/ [2a [2cc#X [2ee	(8.eee^\L 8.aaa 8.cccc# 8.eeee	.	sf
.	16ddd#\Jk) 16dddd#	.	.
.	(8.eee^\L 8.aaa 8.cccc# 8.eeee	.	.
.	16ddd#\Jk) 16dddd#	.	.
*	*X8va	*	*
!!LO:LB:g=original
=54	=54	=54	=54
*	*8va	*	*
*^	*	*	*
4e/] 4ee]	2a\] 2cc#X]	24eee^\LL 24aaa 24cccc#X 24eeee	.	.
.	.	(24ee\	.	<
.	.	24ff#X\J	.	.
.	.	32gg#X\LL	.	.
.	.	32aa\	.	.
.	.	32bb\	.	.
.	.	32ccc#X\JJJ	.	.
4d#X^/ 4dd#X	.	32dddnZX\LLL	.	.
.	.	32eee\	.	.
.	.	32fff#X\	.	.
.	.	32ggg#X\JJ	.	.
.	.	32aaa\LL	.	.
.	.	32bbb\	.	.
.	.	32cccc#\	.	.
.	.	32dddd\JJJ	.	.
4dn^/ 4ddn	2e\ 2a	2eeeeTT\	.	[
4c#X^/) 4cc#X	.	.	.	.
*v	*v	*	*	*
.	16qqdddd#X/LL	.	.
.	16qqeeee/JJ)	.	.
=55	=55	=55	=55
*clefF4	*	*	*
!	!LO:TX:a:t=Trionfando.	!	!
(8qEEE/ 8qEE	.	.	.
([4E^>\) [4A [4c#X [4e	(8.eee^\L 8.aaa 8.cccc#X 8.eeee	.	ff
.	16ddd#X\Jk) 16dddd#X	.	.
12E\L] 12A] 12c#] 12e]	(8.eee^\L 8.aaa 8.cccc# 8.eeee	.	.
12D#X\ 12d#X	.	.	.
12E\J) 12e	.	.	.
.	16ddd#\Jk) 16dddd#	.	.
*clefG2	*	*	*
([2e^>/ [2a [2cc#X [2ee	(8.eee^\L 8.aaa 8.cccc# 8.eeee	.	.
.	16ddd#\Jk) 16dddd#	.	.
.	(8.eee^\L 8.aaa 8.cccc# 8.eeee	.	.
.	16ddd#\Jk) 16dddd#	.	.
*	*	*	*
!!LO:LB:g=original
=56	=56	=56	=56
*^	*	*	*
4e/] 4ee]	2a\] 2cc#X]	24eee^\LL 24aaa 24cccc#X 24eeee	.	.
.	.	(24ee\	.	<
.	.	24ff#X\J	.	.
.	.	32gg#X\LL	.	.
.	.	32aa\	.	.
.	.	32bb\	.	.
.	.	32ccc#X\JJJ	.	.
4d#X^/ 4dd#X	.	32dddn\LLL	.	.
.	.	32eee\	.	.
.	.	32fff#X\	.	.
.	.	32ggg#X\JJ	.	.
.	.	32aaa\LL	.	.
.	.	32bbb\	.	.
.	.	32cccc#\	.	.
.	.	32dddd\JJJ	.	.
4dn^/ 4ddn	2e\ 2a	2eeeeTT\	.	[
4c#X^/) 4cc#X	.	.	.	.
*v	*v	*	*	*
.	16qqdddd#X/LL	.	.
.	16qqeeee/JJ)	.	.
=57	=57	=57	=57
.	(>8qfff#X/ 8qffff#X	.	???
8ee^\ 8gg 8bb-X 8ccc#X 8eee	8ggg^\) 8bbb-X 8cccc#X 8eeee 8gggg	.	.
*	*X8va	*	*
8r	8r	.	.
*clefF4	*clefF4	*	*
*Xtuplet	*	*	*
(24GGGn/LL	(24EEn/LL	.	mf
24BBB-X/	24GG/	.	.
24DD-X/	24BB-X/	.	.
!	!	!	!LO:HP:t=cre-scend-do molto:ext=s:ext=cd
24EEn/	24D-X/	.	<
24GG/	24En/	.	.
24BB-X/JJ	24G/JJ	.	.
24D-X/LL	24B-X\LL	.	.
24E/	24d-X\	.	.
24G/	24en\	.	.
24E/	24d-\	.	.
24D-/	24B-\	.	.
24BB-/JJ	24G\JJ	.	.
24GG/LL	24E\LL	.	.
24BB-/	24G\	.	.
24D-/	24B-\	.	.
24E/	24d-\	.	.
24G/	24e\	.	.
24B-X/JJ)	24g\JJ)	.	.
*clefG2	*clefG2	*	*
!!LO:LB:g=original
=58	=58	=58	=58
(24d-X/LL	(24b-X\LL	.	.
24e/	24dd-X\	.	.
24g/	24ee\	.	[
24e/	24dd-\	.	.
24d-X/	24b-\	.	.
24B-X/JJ	24g\JJ	.	.
48G/LLL	48e\LLL	.	.
48B-/	48g\	.	.
48d-/	48b-\	.	.
48e/	48dd-\	.	.
48g/	48ee\	.	.
48b-X/	48gg\	.	.
*	*8va	*	*
48dd-X/	48bb-X\	.	.
48ee/	48ddd-X\	.	.
48gg/	48eee\	.	.
48bb-X/	48ggg\	.	.
*8va	*	*	*
48ddd-X/	48bbb-X\	.	.
48eee/JJJ	48dddd-X\JJJ	.	.
8ggg/)	8eeee\)	.	.
*X8va	*X8va	*	*
8r;	8r;	.	.
*clefF4	*	*	*
(>8.AAA-X^>/L 8.AA-X	4r	.	ff
16BBB-X^>/Jk 16BB-X	.	.	.
*	*clefF4	*	*
=59	=59	=59	=59
!	!LO:TX:a:t=(secco)	!	!
16DD-X^>/) 16D-X	16En^\ 16G 16B-X 16d-X 16en	.	???
16r	16r	.	.
8r	8r	.	.
4r	4r	.	.
4r	2r	.	.
(>8.AAA-X^>/L 8.AA-X	.	.	.
16BBB-X^>/Jk 16BB-X	.	.	.
=60	=60	=60	=60
!	!LO:TX:b:t=(secco)	!	!
16DD-X^>/) 16D-X	16E^\ 16G 16B-X 16d-X 16e	.	sff
16r	16r	.	.
8r	8r	.	.
4r	4r	.	.
4r	4r	.	.
(>8.AAA-X^>/L 8.AA-X	(8.A-X^\L	.	.
16BBB-X^>/Jk 16BB-X	16B-^\Jk	.	.
!!LO:LB:g=original
=61	=61	=61	=61
*M6/4	*M6/4	*	*
*tuplet	*tuplet	*	*
12DD-X~/L) 12D-X	12E^\L) 12G 12B-X 12d-X 12e	.	sff
!	!LO:TX:b:t=(pesante)	!	!
!LO:TX:b:t=(non legato)	!LO:TX:a:t=(a piacere)\n(non legato)	!	!
12AAA-X~/ 12AA-X	12A-X~\	.	.
12BBB-X~/J 12BB-X	12B-~\J	.	.
*Xtuplet	*Xtuplet	*	*
!LO:TX:a:t=avvivando	!	!	!
12DD-~/L 12D-	12d-~\L	.	.
12AAA-~/ 12AA-	12A-~\	.	.
12BBB-~/J 12BB-	12B-~\J	.	.
!	!	!	!LO:DY:t=sempre forte
12DD-~/L 12D-	12d-~\L	.	f
12BBB-~/ 12BB-	12B-~\	.	.
12BBB--~/J 12BB--	12B--~\J	.	.
12AAA-~/L 12AA-	12A-~\L	.	.
12FFF-X~/ 12FF-X	12F-X~\	.	.
12GGG~/J 12GG	12G~\J	.	.
*8ba	*	*	*
!	!LO:TX:a:t=al-lar-gan-do	!	!
12EEE-X~/L 12EE-X	12E-X~\L	.	.
12FFF-~/ 12FF-	12F-~\	.	.
12DDD-X~/J 12DD-X	12D-X~\J	.	<
12CCC~/L 12CC	12C~/L	.	.
12CCC-X~/ 12CC-X	12C-X~/	.	.
12BBBB-X~/J 12BBB-X	12BB~/J	.	[[
=62	=62	=62	=62
*M4/4	*M4/4	*	*
*met(c)	*met(c)	*	*
*	*	*	*^
!	!	!	!LO:DY:b	!
1BBBB--~ 1BBB--	4BB--/	.	sff	.
!	!	!	!LO:DY:b	!LO:HP:a
.	2.GG~/ 2.D-X 2.E-X	.	sff	> ]]
*	*	*	*v	*v
=63	=63	=63	=63
!LO:TX:b:t=attacca	!	!	!
1BBBB--~; 1BBB--	4r	.	p >
.	2.GG~;/ 2.D-X 2.E-X	.	]]
*X8ba	*	*	*
*	*clefG2	*	*
==	==	==	==
*-	*-	*-	*-
!!!system-decoration: {(s1,s2)}
!!!RDF**kern: < = below
!!!RDF**kern: > = above
!!!RDF**kern: N = linked
!!!RDF**kern: Z = editorial accidental, paren
!!!ENC: Berenika Jozajtis
!!!END: 2023-09-03
!!!EED: Marta Chmielewska
!!!EEV: 2023-10-02
